X:1
T:Der suße Schlaf
T:Melodie und Satz von Friedrich Silcher
T:Aus Herder "Stimmen der Völker"
T:Sehnsucht
T:Creative Commons Attribution Non Commercial 3.0
C:Friedrich Silcher
Z:Creative Commons Attribution Non Commercial 3.0
%%score [ ( 1 2 ) ( 3 4 ) ]
L:1/8
Q:1/4=126
M:4/4
K:G
V:1 treble-8 nm="Tenor"
V:2 treble-8 
V:3 bass nm="Bass"
V:4 bass 
V:1
"^Andante"!p! G2 |!<(! B4 B4!<)! |!>(! d6!>)!!p! c2 | B2 B2 B3 A | !breath!G4 A4 | A2 A2 c2 B2 | %6
 A6!<(! A2!<)! | (d4!>(! c3) B!>)! | B4 z2 d2 | (d2 c2 d2)!<(! e2!<)! | =f6 d2 | d2 =f2 e2 d2 | %12
 !breath!e4!f! e4 | g2 g2 ^f2 e2 | d2!>(! e2 d2 dc!>)! | (B4 A2) c2 | !fermata!B4 z2 |] %17
V:2
 G2 | G4 G4 | B6 G2 | G2 G2 F2 F2 | G4 F4 | F2 F2 A2 G2 | F6 F2 | (G4 F3) G | G4 x2 B2 | %9
w: 1.~Der|sü- ße|Schlaf, der|sonst stillt al- les|wohl, kann|stil- len nicht mein|Herz, mit|Trau- * ern|voll; das|
w: 2.~Kein'|Speis' und|Trank mir|Nah- rung ge- ben|mag, ein-|sam sitz' ich in|Un- mut|Nacht _ und|Tag; das|
w: 3.~In|Zu- ver-|sicht al-|lein an ihr ich|hang', und|hoff', sie soll mich|nicht ver-|las- * sen|lang; sonst|
 (B2 A2 B2) c2 | d6 B2 | B2 d2 c2 B2 | c4 c4 | e2 e2 d2 c2 | B2 c2 B2 A2 | (G4 F2) A2 | G4 x2 |] %17
w: schafft _ _ al-|lein, die|mich er- freu- en|soll, die|mich er- freu- en|soll, die mich er-|freu- * en|soll.|
w: schafft _ _ al-|lein, die|ich im Her- zen|trag', die|ich im Her- zen|trag', die ich im|Her- * zen|trag.|
w: fiel _ _ ich|g'wiß in|bit- tern Tod- des|Zwang, in|bit- tern To- des|Zwang, in bit- tern|To- * des|Zwang.|
V:3
 D,2 | D,4 D,4 | G,6 E,2 | D,2 D,2 D,2 D,2 | !breath!D,4 D,4 | D,2 D,2 D,2 D,2 | D,6 D,2 | %7
 (D,4 D,3) D, | D,4 z2 G,2 | G,6 C2 | B,6 G,2 | G,2 G,2 G,2 G,2 | !breath!G,4 G,4 | %13
 G,2 C2 A,2 A,2 | B,2 F,2 G,2 E,2 | D,6 D,2 | !fermata!D,4 z2 |] %17
V:4
 B,,2 | G,,4 G,,4 | G,6 E,2 | D,2 D,2 D,2 C,2 | B,,4 D,4 | D,2 D,2 F,,2 G,,2 | D,6 C,2 | %7
 (B,,4 A,,3) G,, | G,,4 x2 G,2 | G,6 G,2 | G,6 G,2 | G,2 G,2 G,,2 G,,2 | C,4 C,4 | %13
 C,2 E,2 ^F,2 F,2 | G,2 F,2 G,2 C,2 | D,6 D,2 | G,,4 x2 |] %17

